assets/images/slider/video.svg

<?xml version='1.0' encoding='iso-8859-1'?>
<svg version="1.1" xmlns="http://www.w3.org/2000/svg" viewBox="0 0 137.145 137.145" xmlns:xlink="http://www.w3.org/1999/xlink" enable-background="new 0 0 137.145 137.145">
  <g>
    <g>
      <path d="m54.858,54.859l13.714-20.572h-13.714l-13.714,20.572h13.714zm-27.429-20.572v20.572l13.714-20.572h-13.714zm54.858,20.572l13.714-20.572h-13.714l-13.714,20.572h13.714zm-54.858,54.858h82.286v-48h-82.286v48zm6.857-41.144h68.572v34.286h-68.572v-34.286zm75.429-68.573h-82.286c-15.148,0-27.429,12.281-27.429,27.429v82.287c0,15.148 12.28,27.428 27.429,27.428h82.286c15.149,0 27.429-12.28 27.429-27.428v-82.287c0-15.148-12.28-27.429-27.429-27.429zm13.715,102.859c0,11.361-9.21,20.572-20.572,20.572h-68.572c-11.361,0-20.572-9.21-20.572-20.572v-68.572c0-11.362 9.21-20.572 20.572-20.572h68.572c11.362,0 20.572,9.21 20.572,20.572v68.572zm-13.714-48v-20.572l-13.715,20.572h13.715zm-48.001,41.143l20.572-10.714-20.572-9.858v20.572z"/>
    </g>
  </g>
</svg>

<svg id="Layer_1" data-name="Layer 1" xmlns="http://www.w3.org/2000/svg" viewBox="0 0 137.14 137.14"><defs><style>.cls-1{fill:#fff;}</style></defs><path class="cls-1" d="M54.86,54.86,68.57,34.29H54.86L41.14,54.86ZM27.43,34.29V54.86L41.14,34.29ZM82.29,54.86,96,34.29H82.29L68.57,54.86ZM27.43,109.72h82.29v-48H27.43Zm6.86-41.15h68.57v34.29H34.29ZM109.71,0H27.43A27.43,27.43,0,0,0,0,27.43v82.29a27.43,27.43,0,0,0,27.43,27.42h82.28a27.43,27.43,0,0,0,27.43-27.42V27.43A27.43,27.43,0,0,0,109.71,0Zm13.72,102.86a20.57,20.57,0,0,1-20.57,20.57H34.29a20.57,20.57,0,0,1-20.58-20.57V34.29A20.57,20.57,0,0,1,34.29,13.72h68.57a20.57,20.57,0,0,1,20.57,20.57Zm-13.71-48V34.29L96,54.86ZM61.71,96,82.29,85.29,61.71,75.43Z" transform="translate(0)"/></svg>
